X:1
T:Title
%%score 1 { 2 | 3 }
L:1/8
Q:1/4=103
M:6/8
K:Eb
V:1 treble nm="Grand Piano, Soprano"
V:2 bass nm="Choir Pad, Bass"
V:3 bass 
V:1
 E E2 EEF | [EG] [GB]2 [Ac] [GB]2- | [GB]EE E [DF]2 | [EG] [DF]2- [DF]2- [DF]/ z/ | E E2 EEF | %5
w: By~Robert~Lowry * * * *|||||
 [EG] [GB]2 [Ac] [GB]2- | [GB][DF][DF] [DF] [EG]2 | [DF] E2- E2- E/ z/ | [EB] [Ec]2 [Ec] [Ec]2 | %9
w: ||||
 [Ee] [GB]2 [GB] [GB]2 | [EG] [DF]2 [DF][DG]E | [DF] [EG]2 [FA] [GB]2 | [GB] [Ec]2 [Ec] [Ec]2 | %13
w: ||||
 [Ee] [GB]2 [Ac] [GB]2 | [EG][DF][DF] [DF] [EG]2 | [DF] E2- E3- | E[GB][GB] [GB] [Ac]2- | %17
w: ||||
 [Ac][GB][GB] [GB] [EG]2- | [EG][DF][DF] [DF] [DB]2 | [FA] [EG]2- [EG]2- [EG]/ z/ | %20
w: |||
 z [GB][GB] [GB] [Ac]2- | [Ac][Ad][Ac] [Ad] [Ge]2- | [Ge][GB][GB] [GB] [Ac]2 | [DB] E2- E3- | %24
w: ||||
 E3 z3 |] %25
w: |
V:2
 z6 | z6 | z G,G, G, B,2 | B, B,2- B,2- B,/ z/ | z6 | z6 | z B,B, B, B,2 | A, G,2- G,2- G,/ z/ | %8
 G, A,2 A, A,2 | A, B,2 B, B,2 | B, B,2 B,B,G, | B, B,2 B, B,2 | B, A,2 A, A,2 | A, B,2 E E2 | %14
 B,B,B, B, B,2 | A, G,2- G,3- | G,[K:treble]EE E E2- | EE[K:bass]B, B, B,2- | B,B,B, B, B,2 | %19
 B, B,2- B,2- B,/ z/ | z[K:treble] EE E E2- | E[K:bass]B,B, B, B,2- | B,[K:treble]EE E E2 | %23
 B,[K:bass] G,2- G,3- | G,3 z3 |] %25
V:3
 z6 | z6 | z E,E, E, B,,2 | B,, B,,2- B,,2- B,,/ z/ | z6 | z6 | z B,,B,, B,, B,,2 | %7
 B,, E,2- E,2- E,/ z/ | .E,3 z A,,2 | C, E,2 E, E,2 | E, B,,2 B,, B,,2 | B,, E,2 E, E,2 | .E,3 z3 | %13
 C, E,2 E, E,2 | E,B,,B,, B,, B,,2 | B,, E,2- E,3- | E,E,E, E, E,2- | E,E,E, E, E,2- | %18
 E,B,,B,, B,, B,,2 | B,, E,2- E,2- E,/ z/ | z E,E, E, E,2- | E,F,F, F, E,2- | E,E,E, E, A,,2 | %23
 B,, E,2- E,3- | E,3 z3 |] %25

